app/[lang]/(home)/(new-home)/assets/stacks-appicons/java.svg

<svg width="16" height="16" viewBox="0 0 16 16" fill="none" xmlns="http://www.w3.org/2000/svg">
<path d="M6.17863 11.8531C6.17863 11.8531 5.61615 12.1617 6.57947 12.2658C7.74668 12.3915 8.34315 12.3735 9.62907 12.1443C9.62907 12.1443 9.96784 12.344 10.4401 12.517C7.55636 13.6816 3.91394 12.4495 6.17863 11.8531ZM5.82606 10.3333C5.82606 10.3333 5.19502 10.7736 6.15916 10.8677C7.40603 10.989 8.39047 10.9989 10.0948 10.6897C10.0948 10.6897 10.33 10.915 10.7004 11.038C7.21452 11.999 3.33198 11.1136 5.82606 10.3333Z" fill="#408FC1"/>
<path d="M8.69464 7.85013C9.41589 8.63115 8.5055 9.33333 8.5055 9.33333C8.5055 9.33333 10.3357 8.44465 9.49537 7.33129C8.7102 6.2935 8.1083 5.77804 11.367 4C11.367 4.00011 6.25173 5.20165 8.69464 7.85013Z" fill="#EF5859"/>
<path d="M12.1801 12.9852C12.1801 12.9852 12.5637 13.3063 11.7576 13.5545C10.2249 14.0259 5.37696 14.168 4.03054 13.5734C3.54677 13.3595 4.45431 13.063 4.73983 13.0005C5.03753 12.935 5.20752 12.9469 5.20752 12.9469C4.66919 12.5622 1.7281 13.7028 3.71382 14.0299C9.12874 14.9211 13.5845 13.6286 12.1801 12.9852ZM6.50546 8.7994C6.50546 8.7994 4.03978 9.39403 5.63238 9.61019C6.30493 9.70156 7.64505 9.68059 8.8942 9.57422C9.91477 9.48716 10.9389 9.30124 10.9389 9.30124C10.9389 9.30124 10.5794 9.45781 10.319 9.63811C7.8146 10.3069 2.97779 9.9954 4.3704 9.31172C5.54771 8.73364 6.50546 8.7994 6.50546 8.7994ZM10.9287 11.3094C13.4743 9.96682 12.2972 8.67659 11.4756 8.85038C11.2748 8.89286 11.1847 8.92982 11.1847 8.92982C11.1847 8.92982 11.2595 8.81077 11.4021 8.75957C13.0273 8.17972 14.2769 10.4702 10.8779 11.3774C10.8779 11.3772 10.9169 11.3414 10.9287 11.3094Z" fill="#408FC1"/>
<path d="M9.32133 1C9.32133 1 10.7988 2.45268 7.91959 4.68578C5.61059 6.47768 7.39309 7.49912 7.91879 8.66667C6.57083 7.47181 5.5821 6.4198 6.24532 5.44078C7.21923 4.004 9.91732 3.3071 9.32133 1Z" fill="#EF5859"/>
<path d="M6.64892 14.9559C9.1309 15.1179 12.9433 14.8658 13.0335 13.6667C13.0335 13.6667 12.86 14.1213 10.9821 14.4819C8.86344 14.8891 6.24983 14.8416 4.7002 14.5804C4.7002 14.5805 5.01768 14.8488 6.64892 14.9559Z" fill="#408FC1"/>
</svg>

<svg xmlns="http://www.w3.org/2000/svg" fill="none" viewBox="0 0 16 16">
  <path
    fill="#408FC1"
    d="M6.18 11.85s-.56.31.4.42c1.17.12 1.76.1 3.05-.13 0 0 .34.2.81.38-2.88 1.16-6.53-.07-4.26-.67Zm-.35-1.52s-.63.44.33.54c1.25.12 2.23.13 3.93-.18 0 0 .24.22.61.35-3.49.96-7.37.07-4.87-.7Z"
  />
  <path
    fill="#EF5859"
    d="M8.7 7.85c.72.78-.2 1.48-.2 1.48s1.84-.89 1-2C8.7 6.3 8.1 5.78 11.37 4c0 0-5.12 1.2-2.68 3.85Z"
  />
  <path
    fill="#408FC1"
    d="M12.18 12.99s.38.32-.42.56c-1.54.48-6.38.62-7.73.02-.48-.21.42-.5.71-.57.3-.06.47-.05.47-.05-.54-.39-3.48.75-1.5 1.08 5.42.9 9.87-.4 8.47-1.04Zm-5.67-4.2s-2.47.6-.88.82c.67.1 2.02.07 3.26-.04 1.02-.08 2.05-.27 2.05-.27s-.36.16-.62.34c-2.5.67-7.34.36-5.95-.33 1.18-.58 2.14-.51 2.14-.51Zm4.42 2.52c2.54-1.34 1.37-2.63.55-2.46-.2.04-.3.08-.3.08s.08-.12.22-.17c1.63-.58 2.88 1.71-.52 2.62l.05-.07Z"
  />
  <path
    fill="#EF5859"
    d="M9.32 1s1.48 1.45-1.4 3.69c-2.3 1.79-.53 2.8 0 3.98-1.35-1.2-2.34-2.25-1.67-3.23C7.22 4 9.92 3.31 9.32 1Z"
  />
  <path
    fill="#408FC1"
    d="M6.65 14.96c2.48.16 6.3-.1 6.38-1.3 0 0-.17.46-2.05.82-2.12.4-4.73.36-6.28.1 0 0 .32.27 1.95.38Z"
  />
</svg>
